Sweet-Rainbow/icons/kdevelop.svg

<?xml version="1.0" encoding="UTF-8" standalone="no"?>
<!-- Generator: Gravit.io -->

<svg
   xmlns:dc="http://purl.org/dc/elements/1.1/"
   xmlns:cc="http://creativecommons.org/ns#"
   xmlns:rdf="http://www.w3.org/1999/02/22-rdf-syntax-ns#"
   xmlns:svg="http://www.w3.org/2000/svg"
   xmlns="http://www.w3.org/2000/svg"
   xmlns:sodipodi="http://sodipodi.sourceforge.net/DTD/sodipodi-0.dtd"
   xmlns:inkscape="http://www.inkscape.org/namespaces/inkscape"
   style="isolation:isolate"
   viewBox="0 0 36 36"
   width="48"
   height="48"
   version="1.1"
   id="svg9"
   sodipodi:docname="kdevelop.svg"
   inkscape:version="0.92.4 (5da689c313, 2019-01-14)">
  <metadata
     id="metadata15">
    <rdf:RDF>
      <cc:Work
         rdf:about="">
        <dc:format>image/svg+xml</dc:format>
        <dc:type
           rdf:resource="http://purl.org/dc/dcmitype/StillImage" />
        <dc:title></dc:title>
      </cc:Work>
    </rdf:RDF>
  </metadata>
  <defs
     id="defs13" />
  <sodipodi:namedview
     pagecolor="#ffffff"
     bordercolor="#666666"
     borderopacity="1"
     objecttolerance="10"
     gridtolerance="10"
     guidetolerance="10"
     inkscape:pageopacity="0"
     inkscape:pageshadow="2"
     inkscape:window-width="640"
     inkscape:window-height="480"
     id="namedview11"
     showgrid="false"
     inkscape:zoom="29.365243"
     inkscape:cx="25.325443"
     inkscape:cy="32"
     inkscape:current-layer="svg9"
     units="px" />
  <linearGradient
     id="_lgradient_39"
     x1="0.065124042"
     y1="0.23632972"
     x2="0.97769916"
     y2="0.76862186"
     gradientTransform="matrix(40.2,0,0,42.036,2.8,2.982)"
     gradientUnits="userSpaceOnUse">
    <stop
       offset="2.608695652173913%"
       stop-opacity="1"
       style="stop-color:rgb(179,255,171)"
       id="stop2" />
    <stop
       offset="98.69565217391305%"
       stop-opacity="1"
       style="stop-color:rgb(18,255,247)"
       id="stop4" />
  </linearGradient>
  <g
     id="g826"
     transform="matrix(0.85640265,0,0,0.85640265,-1.611612,-2.5536636)">
    <path
       id="path7"
       d="m 41.082,28.626 c -0.177,0.649 -0.391,1.287 -0.64,1.912 l 2.546,2.04 c -0.588,1.316 -1.311,2.568 -2.155,3.736 l -3.041,-1.185 c -0.841,1.049 -1.796,1.999 -2.849,2.834 l 1.193,3.06 c -1.167,0.845 -2.417,1.569 -3.731,2.159 l -2.057,-2.567 c -1.249,0.49 -2.55,0.838 -3.877,1.037 l -0.499,3.259 c -1.432,0.145 -2.875,0.143 -4.307,-0.007 v 0 l -0.5,-3.252 C 20.501,41.56 19.842,41.43 19.192,41.264 18.544,41.086 17.905,40.873 17.28,40.624 l -2.04,2.546 c -1.316,-0.588 -2.568,-1.311 -3.736,-2.155 l 1.185,-3.042 C 11.64,37.133 10.69,36.178 9.855,35.125 l -3.06,1.193 C 5.95,35.151 5.226,33.901 4.636,32.587 L 7.203,30.53 C 6.713,29.281 6.365,27.98 6.167,26.653 L 2.908,26.154 C 2.762,24.722 2.764,23.279 2.914,21.847 l 3.252,-0.5 c 0.092,-0.664 0.222,-1.323 0.388,-1.973 0.178,-0.649 0.391,-1.287 0.64,-1.912 l -2.546,-2.04 c 0.589,-1.316 1.311,-2.568 2.155,-3.736 l 3.042,1.185 c 0.84,-1.049 1.795,-1.999 2.849,-2.834 L 11.5,6.977 c 1.167,-0.845 2.417,-1.569 3.732,-2.159 l 2.056,2.567 c 1.249,-0.49 2.55,-0.838 3.877,-1.037 l 0.499,-3.259 c 1.432,-0.145 2.876,-0.143 4.307,0.007 l 0.5,3.252 c 0.664,0.092 1.323,0.222 1.973,0.388 0.649,0.178 1.287,0.391 1.912,0.64 l 2.04,-2.546 c 1.316,0.588 2.568,1.311 3.736,2.155 l -1.185,3.042 c 1.049,0.84 1.999,1.795 2.834,2.848 l 3.06,-1.193 c 0.845,1.167 1.569,2.417 2.159,3.731 l -2.566,2.057 c 0.346,0.884 0.622,1.794 0.622,1.794 0.111,0.511 -0.246,0.927 -0.798,0.927 h -1.24 c -0.552,0 -1.111,-0.435 -1.247,-0.97 -0.067,-0.266 -0.558,-1.458 -1.206,-2.58 -1.952,-3.381 -5.167,-5.848 -8.937,-6.858 -3.771,-1.01 -7.789,-0.482 -11.169,1.47 -3.381,1.952 -5.848,5.167 -6.858,8.938 -1.01,3.77 -0.481,7.788 1.47,11.168 1.952,3.381 5.167,5.848 8.938,6.858 3.77,1.01 7.788,0.482 11.168,-1.47 3.381,-1.952 5.848,-5.167 6.599,-7.972 0.143,-0.533 0.707,-0.966 1.259,-0.966 h 1.239 c 0.552,0 0.945,0.245 0.877,0.546 q 0,0 -0.069,0.271 z M 15,27.702 l 5.267,5.267 2.633,-7.9 z m 3.154,-13.104 v 0 c -0.547,0.338 -1.268,0.169 -1.609,-0.376 v 0 c -0.341,-0.545 -0.174,-1.265 0.373,-1.606 v 0 c 2.127,-1.323 4.581,-2.022 7.082,-2.022 2.267,0 4.5,0.577 6.488,1.672 v 0 c 0.563,0.313 0.766,1.023 0.454,1.586 v 0 c -0.312,0.563 -1.022,0.767 -1.585,0.455 v 0 c -1.638,-0.91 -3.48,-1.382 -5.357,-1.382 -2.069,0 -4.092,0.577 -5.846,1.673 z M 14.26,29.275 v 0 c 0.309,0.566 0.1,1.275 -0.466,1.583 v 0 c -0.567,0.307 -1.274,0.097 -1.58,-0.47 v 0 C 11.147,28.43 10.594,26.232 10.594,24 c 0,-1.702 0.32,-3.387 0.95,-4.96 v 0 c 0.238,-0.599 0.917,-0.891 1.515,-0.653 v 0 c 0.599,0.238 0.891,0.917 0.653,1.515 v 0 c -0.525,1.3 -0.787,2.693 -0.787,4.098 0,1.842 0.461,3.655 1.335,5.275 z m 14.875,4.535 v 0 c 0.57,-0.296 1.275,-0.074 1.574,0.495 v 0 c 0.299,0.57 0.08,1.275 -0.49,1.574 v 0 c -1.917,1.003 -4.051,1.527 -6.219,1.527 -2.087,0 -4.15,-0.483 -6.015,-1.422 v 0 c -0.576,-0.289 -0.809,-0.992 -0.519,-1.568 v 0 c 0.289,-0.576 0.992,-0.808 1.568,-0.519 v 0 c 1.539,0.776 3.241,1.178 4.966,1.178 1.789,0 3.55,-0.431 5.135,-1.265 z m 5.246,-13.68 v 0 c -0.225,-0.602 0.082,-1.273 0.685,-1.498 v 0 c 0.603,-0.226 1.276,0.083 1.501,0.687 v 0 c 0.554,1.498 0.839,3.084 0.839,4.681 0,2.11 -0.495,4.197 -1.457,6.08 v 0 c -0.289,0.572 -0.991,0.799 -1.565,0.507 v 0 c -0.574,-0.293 -0.803,-0.996 -0.51,-1.568 v 0 c 0.793,-1.557 1.201,-3.276 1.201,-5.019 0,-1.323 -0.233,-2.629 -0.694,-3.87 z M 14.26,32.807 c 0,-0.643 0.522,-1.165 1.166,-1.165 0.643,0 1.165,0.522 1.165,1.165 0,0.644 -0.522,1.166 -1.165,1.166 -0.644,0 -1.166,-0.522 -1.166,-1.166 z M 31.91,16.038 c 0,-0.644 0.522,-1.166 1.166,-1.166 0.643,0 1.165,0.522 1.165,1.166 0,0.643 -0.522,1.166 -1.165,1.166 -0.644,0 -1.166,-0.523 -1.166,-1.166 z m -18.673,0 c 0,0.643 0.522,1.166 1.166,1.166 0.643,0 1.165,-0.523 1.165,-1.166 0,-0.644 -0.522,-1.166 -1.165,-1.166 -0.644,0 -1.166,0.522 -1.166,1.166 z m 18.405,16.769 c 0,0.644 0.522,1.166 1.165,1.166 0.644,0 1.166,-0.522 1.166,-1.166 0,-0.643 -0.522,-1.165 -1.166,-1.165 -0.643,0 -1.165,0.522 -1.165,1.165 z"
       style="fill:url(#_lgradient_39);fill-rule:evenodd"
       inkscape:connector-curvature="0" />
  </g>
</svg>

<?xml version="1.0" encoding="UTF-8" standalone="no"?><!-- Generator: Gravit.io --><svg xmlns="http://www.w3.org/2000/svg" xmlns:xlink="http://www.w3.org/1999/xlink" style="isolation:isolate" viewBox="0 0 48 48" width="48pt" height="48pt"><linearGradient id="_lgradient_39" x1="0.06512404043131156" y1="0.2363297231439407" x2="0.9776991738141866" y2="0.7686218550572972" gradientTransform="matrix(40.2,0,0,42.036,2.8,2.982)" gradientUnits="userSpaceOnUse"><stop offset="2.608695652173913%" stop-opacity="1" style="stop-color:rgb(179,255,171)"/><stop offset="98.69565217391305%" stop-opacity="1" style="stop-color:rgb(18,255,247)"/></linearGradient><path d=" M 41.082 28.626 C 40.905 29.275 40.691 29.913 40.442 30.538 L 42.988 32.578 C 42.4 33.894 41.677 35.146 40.833 36.314 L 37.792 35.129 C 36.951 36.178 35.996 37.128 34.943 37.963 L 36.136 41.023 C 34.969 41.868 33.719 42.592 32.405 43.182 L 30.348 40.615 C 29.099 41.105 27.798 41.453 26.471 41.652 L 25.972 44.911 C 24.54 45.056 23.097 45.054 21.665 44.904 L 21.665 44.904 L 21.165 41.652 C 20.501 41.56 19.842 41.43 19.192 41.264 C 18.544 41.086 17.905 40.873 17.28 40.624 L 15.24 43.17 C 13.924 42.582 12.672 41.859 11.504 41.015 L 12.689 37.973 C 11.64 37.133 10.69 36.178 9.855 35.125 L 6.795 36.318 C 5.95 35.151 5.226 33.901 4.636 32.587 L 7.203 30.53 C 6.713 29.281 6.365 27.98 6.167 26.653 L 2.908 26.154 C 2.762 24.722 2.764 23.279 2.914 21.847 L 6.166 21.347 C 6.258 20.683 6.388 20.024 6.554 19.374 C 6.732 18.725 6.945 18.087 7.194 17.462 L 4.648 15.422 C 5.237 14.106 5.959 12.854 6.803 11.686 L 9.845 12.871 C 10.685 11.822 11.64 10.872 12.694 10.037 L 11.5 6.977 C 12.667 6.132 13.917 5.408 15.232 4.818 L 17.288 7.385 C 18.537 6.895 19.838 6.547 21.165 6.348 L 21.664 3.089 C 23.096 2.944 24.54 2.946 25.971 3.096 L 26.471 6.348 C 27.135 6.44 27.794 6.57 28.444 6.736 C 29.093 6.914 29.731 7.127 30.356 7.376 L 32.396 4.83 C 33.712 5.418 34.964 6.141 36.132 6.985 L 34.947 10.027 C 35.996 10.867 36.946 11.822 37.781 12.875 L 40.841 11.682 C 41.686 12.849 42.41 14.099 43 15.413 L 40.434 17.47 C 40.78 18.354 41.056 19.264 41.056 19.264 C 41.167 19.775 40.81 20.191 40.258 20.191 L 39.018 20.191 C 38.466 20.191 37.907 19.756 37.771 19.221 C 37.704 18.955 37.213 17.763 36.565 16.641 C 34.613 13.26 31.398 10.793 27.628 9.783 C 23.857 8.773 19.839 9.301 16.459 11.253 C 13.078 13.205 10.611 16.42 9.601 20.191 C 8.591 23.961 9.12 27.979 11.071 31.359 C 13.023 34.74 16.238 37.207 20.009 38.217 C 23.779 39.227 27.797 38.699 31.177 36.747 C 34.558 34.795 37.025 31.58 37.776 28.775 C 37.919 28.242 38.483 27.809 39.035 27.809 L 40.274 27.809 C 40.826 27.809 41.219 28.054 41.151 28.355 Q 41.151 28.355 41.082 28.626 L 41.082 28.626 Z  M 15 27.702 L 20.267 32.969 L 22.9 25.069 L 15 27.702 L 15 27.702 Z  M 18.154 14.598 L 18.154 14.598 C 17.607 14.936 16.886 14.767 16.545 14.222 L 16.545 14.222 C 16.204 13.677 16.371 12.957 16.918 12.616 L 16.918 12.616 C 19.045 11.293 21.499 10.594 24 10.594 C 26.267 10.594 28.5 11.171 30.488 12.266 L 30.488 12.266 C 31.051 12.579 31.254 13.289 30.942 13.852 L 30.942 13.852 C 30.63 14.415 29.92 14.619 29.357 14.307 L 29.357 14.307 C 27.719 13.397 25.877 12.925 24 12.925 C 21.931 12.925 19.908 13.502 18.154 14.598 L 18.154 14.598 L 18.154 14.598 L 18.154 14.598 L 18.154 14.598 L 18.154 14.598 L 18.154 14.598 L 18.154 14.598 Z  M 14.26 29.275 L 14.26 29.275 C 14.569 29.841 14.36 30.55 13.794 30.858 L 13.794 30.858 C 13.227 31.165 12.52 30.955 12.214 30.388 L 12.214 30.388 C 11.147 28.43 10.594 26.232 10.594 24 C 10.594 22.298 10.914 20.613 11.544 19.04 L 11.544 19.04 C 11.782 18.441 12.461 18.149 13.059 18.387 L 13.059 18.387 C 13.658 18.625 13.95 19.304 13.712 19.902 L 13.712 19.902 C 13.187 21.202 12.925 22.595 12.925 24 C 12.925 25.842 13.386 27.655 14.26 29.275 L 14.26 29.275 L 14.26 29.275 L 14.26 29.275 L 14.26 29.275 L 14.26 29.275 L 14.26 29.275 L 14.26 29.275 Z  M 29.135 33.81 L 29.135 33.81 C 29.705 33.514 30.41 33.736 30.709 34.305 L 30.709 34.305 C 31.008 34.875 30.789 35.58 30.219 35.879 L 30.219 35.879 C 28.302 36.882 26.168 37.406 24 37.406 C 21.913 37.406 19.85 36.923 17.985 35.984 L 17.985 35.984 C 17.409 35.695 17.176 34.992 17.466 34.416 L 17.466 34.416 C 17.755 33.84 18.458 33.608 19.034 33.897 L 19.034 33.897 C 20.573 34.673 22.275 35.075 24 35.075 C 25.789 35.075 27.55 34.644 29.135 33.81 L 29.135 33.81 L 29.135 33.81 L 29.135 33.81 L 29.135 33.81 L 29.135 33.81 L 29.135 33.81 Z  M 34.381 20.13 L 34.381 20.13 C 34.156 19.528 34.463 18.857 35.066 18.632 L 35.066 18.632 C 35.669 18.406 36.342 18.715 36.567 19.319 L 36.567 19.319 C 37.121 20.817 37.406 22.403 37.406 24 C 37.406 26.11 36.911 28.197 35.949 30.08 L 35.949 30.08 C 35.66 30.652 34.958 30.879 34.384 30.587 L 34.384 30.587 C 33.81 30.294 33.581 29.591 33.874 29.019 L 33.874 29.019 C 34.667 27.462 35.075 25.743 35.075 24 C 35.075 22.677 34.842 21.371 34.381 20.13 L 34.381 20.13 L 34.381 20.13 L 34.381 20.13 L 34.381 20.13 L 34.381 20.13 Z  M 14.26 32.807 C 14.26 32.164 14.782 31.642 15.426 31.642 C 16.069 31.642 16.591 32.164 16.591 32.807 C 16.591 33.451 16.069 33.973 15.426 33.973 C 14.782 33.973 14.26 33.451 14.26 32.807 L 14.26 32.807 L 14.26 32.807 L 14.26 32.807 L 14.26 32.807 Z  M 31.91 16.038 C 31.91 15.394 32.432 14.872 33.076 14.872 C 33.719 14.872 34.241 15.394 34.241 16.038 C 34.241 16.681 33.719 17.204 33.076 17.204 C 32.432 17.204 31.91 16.681 31.91 16.038 L 31.91 16.038 L 31.91 16.038 L 31.91 16.038 Z  M 13.237 16.038 C 13.237 16.681 13.759 17.204 14.403 17.204 C 15.046 17.204 15.568 16.681 15.568 16.038 C 15.568 15.394 15.046 14.872 14.403 14.872 C 13.759 14.872 13.237 15.394 13.237 16.038 L 13.237 16.038 L 13.237 16.038 Z  M 31.642 32.807 C 31.642 33.451 32.164 33.973 32.807 33.973 C 33.451 33.973 33.973 33.451 33.973 32.807 C 33.973 32.164 33.451 31.642 32.807 31.642 C 32.164 31.642 31.642 32.164 31.642 32.807 L 31.642 32.807 Z " fill-rule="evenodd" fill="url(#_lgradient_39)"/></svg>
